X:1
T:Cello Suite No. 1
T:I. Prelude
T:Cello Suite No. 1 in G Major
T:J. S. Bach BWV 1007
T:Guitar 
T:Public Domain MuseScore engraving by Isaac Weiss 2016 isaacaweiss@gmail.com
T:Public Domain MuseScore engraving by Isaac Weiss 2016 isaacaweiss@gmail.com
C:J. S. Bach
Z:Public Domain
Z:MuseScore engraving by Isaac Weiss 2016
Z:isaacaweiss@gmail.com
%%score ( 1 2 )
L:1/8
Q:1/4=60
M:4/4
K:G
V:1 treble-8 nm="Classical Guitar" snm="Guit."
V:2 treble-8 
V:1
 (G,/D/B/)A/ B/D/B/D/ (G,/D/B/)A/ B/D/B/D/ | (G,/E/c/)B/ c/E/c/E/ (G,/E/c/)B/ c/E/c/E/ | %2
 (G,/F/c/)B/ c/F/c/F/ (G,/F/c/)B/ c/F/c/F/ | (G,/G/B/)A/ B/G/B/G/ (G,/G/B/)A/ B/G/B/F/ | %4
 (G,/E/B/)A/ B/G/F/G/ E/G/F/G/ B,/D/^C/B,/ | (^C/G/A/)G/ A/G/A/G/ (C/G/A/)G/ A/G/A/G/ | %6
 (F/A/d/)^c/ d/A/G/A/ F/A/G/A/ D/F/E/D/ | (E/B/g/)f/ g/B/g/B/ (E/B/g/)f/ g/B/g/B/ | %8
 E/^c/d/e/ d/c/B/A/ (g/f/e/)d/ c/B/A/G/ | (F/E/D/)d/ A/d/F/A/ (D/E/F/)A/ G/F/E/D/ | %10
 ^G/(D/=F/E/) F/D/^G/D/ B/(D/=F/E/) F/D/^G/D/ | (C/E/A/)B/ c/A/E/D/ (C/E/A/)B/ c/A/F/E/ | %12
 (^D/F/D/)F/ A/F/A/F/ (D/F/D/)F/ A/F/A/F/ | (G,/F,/E,/)G,/ F,/G,/A,/F,/ G/F/E/D/ C/B,/A,/G,/ | %14
 (F,/C/D/)C/ D/C/D/C/ (F,/C/D/)C/ D/C/D/C/ | (G,/B,/=F/)E/ F/B,/F/B,/ (G,/B,/F/)E/ F/B,/F/B,/ | %16
 (G,/C/E/)D/ E/C/E/C/ (G,/C/E/)D/ E/C/E/C/ | (G,/F/c/)B/ c/F/c/F/ (G,/F/c/)B/ c/F/c/F/ | %18
 (G,/D/B/)A/ B/G/F/E/ D/C/B,/A,/ G/F/E/D/ | (^C/A/e/)f/ g/e/f/g/ (C/A/e/)f/ g/e/f/g/ | %20
 (=C/A/d/)e/ f/d/e/f/ (C/A/d/)e/ f/d/e/f/ | (C/A/d/)f/ a/^c'/!fermata!d'- d'/A,/B,/C/ D/E/F/G/ | %22
 (A/F/D/)E/ F/G/A/B/ (c/A/F/)G/ A/B/c/d/ | (_e/d/^c/d/) (d/=c/B/c/) c/A/F/E/ D/A,/B,/C/ | %24
 (D/A/d/)f/ a/b/c'/a/ b/g/d/c/ B/G/A/B/ | (D/G/B/)d/ g/a/b/g/ (^c'/_b/a/b/) (b/a/^g/a/) | %26
 (a/g/f/)g/ g/e/^c/B/ A/c/e/g/ a/^c'/d'/c'/ | (d'/a/f/)e/ f/a/d/f/ A/d/^c/B/ A/G/F/E/ | %28
 D(c/B/ A/G/F/E/ D/)(c/B/A/ G/F/E/D/ | C/)(B/A/G/ F/E/D/C/ B,/)(A/G/F/ E/D/C/B,/ | %30
 A,/)(G/F/E/) F/A/D/A/ E/A/F/A/ G/A/E/A/ | F/A/D/A/ G/A/E/A/ F/A/D/A/ G/A/E/A/ | %32
 F/A/D/A/ E/A/F/A/ x/ A/x/A/ x/ A/x/A/ | x/ A/x/A/ x/ A/x/A/ x/ A/x/A/ x/ A/x/A/ | %34
 x/ A/x/A/ x/ A/x/A/ x/ A/x/A/ x/ A/x/A/ | x/ A/x/A/ x/ A/x/A/ G/A/F/A/ G/A/E/A/ | %36
 F/A/D/E/ =F/D/^F/D/ G/D/^G/D/ A/D/^A/D/ | =B/D/c/D/ ^c/D/d/D/ ^d/D/=e/D/ =f/D/^f/D/ | %38
 (g/B/D/)B/ g/B/g/B/ (g/B/D/)B/ g/B/g/B/ | (g/A/D/)A/ g/A/g/A/ (g/A/D/)A/ g/A/g/A/ | %40
 (f/c/D/)c/ f/c/f/c/ (f/c/D/)c/ f/c/f/c/ | !fermata!!stemless![G,Bg]8 |] %42
V:2
 x8 | x8 | x8 | x8 | x8 | x8 | x8 | x8 | x8 | x8 | x8 | x8 | x8 | x8 | x8 | x8 | x8 | x8 | x8 | %19
 x8 | x8 | x8 | x8 | x8 | x8 | x8 | x8 | x8 | x8 | x8 | x8 | x8 | x4 G/x/A/ x/ B/x/D/ x/ | %33
 A/x/B/ x/ c/x/D/ x/ B/x/c/ x/ d/x/B/ x/ | c/x/B/ x/ c/x/A/ x/ B/x/A/ x/ B/x/G/ x/ | %35
 A/x/G/ x/ A/x/F/ x/ x4 | x8 | x8 | x8 | x8 | x8 | x8 |] %42

